Flat-Remix-Dark/apps/scalable/dragon-ball-online-global.svg

<svg xmlns="http://www.w3.org/2000/svg" xmlns:xlink="http://www.w3.org/1999/xlink" width="384pt" height="384pt" version="1.1" viewBox="0 0 384 384"> <defs> <filter id="alpha" width="100%" height="100%" x="0%" y="0%" filterUnits="objectBoundingBox"> <feColorMatrix in="SourceGraphic" type="matrix" values="0 0 0 0 1 0 0 0 0 1 0 0 0 0 1 0 0 0 1 0"/> </filter> <mask id="mask0"> <g filter="url(#alpha)"> <rect width="384" height="384" x="0" y="0" style="fill:rgb(0%,0%,0%);fill-opacity:0.2"/> </g> </mask> <clipPath id="clip1"> <rect width="384" height="384" x="0" y="0"/> </clipPath> <g id="surface5" clip-path="url(#clip1)"> <path style="fill:rgb(0%,0%,0%)" d="M 24.128906 195 C 24.074219 196.152344 24.03125 197.304688 24 198.460938 C 24 290.988281 99.214844 366 192 366 C 284.785156 366 360 290.988281 360 198.460938 C 359.964844 197.648438 359.921875 196.839844 359.871094 196.027344 C 357.933594 287.117188 283.359375 359.96875 192 360.015625 C 100.246094 359.957031 25.511719 286.492188 24.128906 195 Z M 24.128906 195"/> </g> <mask id="mask1"> <g filter="url(#alpha)"> <rect width="384" height="384" x="0" y="0" style="fill:rgb(0%,0%,0%);fill-opacity:0.2"/> </g> </mask> <clipPath id="clip2"> <rect width="384" height="384" x="0" y="0"/> </clipPath> <g id="surface8" clip-path="url(#clip2)"> <path style="fill:rgb(100.000%,100.000%,100.000%)" d="M 170.507812 24.71875 C 148.660156 27.488281 128.191406 34.453125 109.828125 44.734375 L 121.753906 47.71875 L 129.464844 53.117188 L 129.464844 57.742188 L 142.585938 66.238281 L 139.503906 78.59375 L 132.566406 73.195312 L 127.925781 78.589844 L 122.523438 81.675781 L 119.441406 72.40625 L 120.976562 67.011719 L 119.441406 63.15625 L 111.714844 56.199219 L 108.628906 56.199219 L 111.714844 63.925781 L 111.714844 70.863281 C 108.675781 70.019531 105.554688 69.71875 102.445312 69.324219 L 110.941406 75.507812 L 111.714844 79.363281 L 121.753906 87.859375 L 131.777344 85.546875 L 131.777344 79.363281 L 136.417969 82.445312 L 134.105469 87.859375 L 141.816406 87.859375 L 145.6875 94.796875 L 150.3125 100.210938 L 159.582031 101.753906 L 154.167969 107.148438 L 152.625 112.5625 L 159.582031 112.5625 L 168.0625 117.191406 L 168.0625 131.085938 L 164.207031 131.085938 L 160.351562 134.9375 L 151.855469 131.085938 L 148.769531 122.585938 L 142.585938 118.730469 L 141.816406 115.648438 L 131.792969 113.335938 L 126.378906 119.503906 L 120.210938 122.585938 L 124.066406 129.542969 L 118.667969 128 L 115.570312 121.042969 L 122.523438 113.335938 L 119.441406 113.335938 L 113.253906 118.730469 L 111.710938 126.460938 L 106.316406 133.394531 L 104.773438 123.375 L 101.671875 121.816406 C 98.402344 125.277344 95.945312 129.5 93.191406 133.398438 L 82.382812 134.167969 L 76.96875 138.039062 L 79.296875 141.894531 L 85.464844 147.289062 L 93.960938 147.289062 L 105.542969 143.4375 L 110.941406 144.207031 L 115.566406 148.832031 L 127.917969 136.480469 L 136.417969 134.167969 L 148.769531 135.710938 L 160.351562 138.808594 C 166.65625 146.105469 172.902344 153.609375 178.871094 161.183594 L 185.828125 178.949219 L 182.726562 182.035156 L 188.910156 191.300781 L 181.957031 207.507812 C 176.332031 213.996094 170.589844 220.304688 164.976562 226.800781 L 156.480469 219.859375 L 153.394531 223.714844 L 144.128906 218.320312 L 141.042969 221.402344 L 132.5625 221.402344 L 127.148438 227.570312 L 130.234375 238.382812 L 124.066406 245.335938 L 124.835938 257.6875 L 119.4375 266.941406 L 123.292969 274.667969 C 123.621094 280.285156 124.066406 286.027344 124.066406 291.644531 C 121.355469 299.257812 118.125 306.367188 115.566406 314.039062 L 114.027344 326.390625 L 114.027344 332.558594 L 109.398438 332.558594 L 101.671875 327.933594 L 94.308594 327.933594 C 121.816406 347.59375 155.457031 359.28125 191.996094 359.28125 C 219.433594 359.28125 245.21875 352.625 268.046875 341.054688 L 268.421875 340.285156 L 263.007812 334.886719 L 261.46875 329.472656 L 252.988281 327.160156 L 246.800781 310.183594 L 248.34375 306.328125 L 244.488281 299.371094 L 234.449219 297.058594 L 229.824219 285.476562 L 230.59375 270.042969 L 222.867188 259.230469 L 222.097656 248.421875 C 232.632812 243.089844 242.53125 237.703125 252.988281 232.214844 L 258.382812 221.402344 L 267.652344 219.089844 L 273.050781 205.195312 L 285.402344 206.738281 L 296.984375 198.257812 L 308.5625 209.050781 L 308.5625 210.59375 C 312.058594 209.5625 316.261719 209.460938 319.375 207.511719 L 321.6875 199.800781 L 321.6875 192.074219 L 329.398438 192.84375 C 328.753906 187.65625 327.730469 181.828125 327.085938 176.636719 L 331.726562 176.636719 L 336.351562 182.804688 L 340.980469 185.117188 L 347.164062 181.265625 L 347.933594 173.554688 L 347.164062 164.285156 L 337.125 157.332031 L 329.414062 157.332031 L 327.855469 152.703125 L 318.605469 155.019531 L 311.648438 163.515625 L 310.105469 148.851562 L 297.753906 138.8125 L 293.898438 127.230469 L 284.628906 123.375 L 279.234375 116.417969 L 267.652344 114.105469 L 262.238281 104.839844 L 279.234375 104.839844 L 268.421875 100.210938 L 260.695312 100.210938 L 250.671875 96.359375 L 249.113281 106.378906 L 244.488281 99.441406 L 249.886719 95.585938 L 248.34375 91.714844 L 252.214844 87.859375 L 256.839844 87.089844 L 255.300781 82.464844 L 259.15625 75.507812 L 266.882812 78.59375 L 265.339844 72.425781 L 274.589844 67.011719 L 281.546875 80.132812 L 280.773438 84.003906 L 287.714844 87.089844 L 292.355469 97.128906 L 293.898438 87.859375 L 306.25 83.234375 L 308.5625 76.277344 L 292.355469 67.011719 L 285.402344 60.070312 L 284.628906 51.574219 L 285.039062 51.328125 C 283.277344 50.15625 281.378906 49.117188 279.546875 48 L 282.332031 54.691406 L 274.605469 54.691406 L 272.292969 48.507812 L 265.355469 53.902344 L 259.171875 53.902344 L 259.171875 47.734375 L 266.125 44.636719 L 272.292969 48.507812 L 271.523438 46.964844 C 268.425781 44.722656 265.441406 42.164062 262.285156 40.007812 L 254.558594 42.339844 C 249.757812 45.664062 245.464844 49.039062 240.664062 52.363281 L 232.9375 45.421875 L 241.433594 42.339844 L 244.519531 34.613281 L 250.539062 33.941406 C 247.289062 32.738281 244.046875 31.515625 240.710938 30.511719 L 225.226562 41.570312 L 225.226562 48.507812 L 231.394531 55.464844 L 222.914062 72.441406 L 216.730469 69.359375 L 209.789062 57.777344 C 199.421875 54.507812 189.453125 50.714844 179.660156 46.195312 L 180.433594 50.820312 L 175.804688 53.921875 L 167.308594 47.734375 L 171.179688 43.109375 L 177.347656 46.195312 L 178.121094 45.421875 L 170.535156 24.738281 Z M 93.277344 55.429688 C 90.652344 57.335938 87.988281 59.183594 85.484375 61.234375 L 88.550781 64.695312 L 97.050781 55.429688 Z M 157.253906 63.925781 L 161.894531 63.925781 L 161.894531 68.554688 L 158.8125 72.40625 L 158.8125 79.363281 L 160.351562 89.402344 L 152.628906 87.859375 L 146.460938 82.449219 L 151.855469 77.050781 C 153.546875 72.449219 155.132812 68.339844 157.253906 63.925781 Z M 168.835938 73.964844 L 173.476562 75.507812 L 172.707031 84.761719 L 165.75 80.90625 Z M 48.417969 152.699219 L 41.460938 160.414062 L 33.75 159.648438 C 31.035156 162.160156 28.339844 164.320312 25.808594 166.832031 C 24.652344 174.820312 24.023438 182.988281 24.023438 191.308594 C 24.023438 246.464844 50.464844 295.082031 91.28125 325.667969 L 80.828125 313.261719 L 82.386719 307.863281 L 73.121094 300.136719 L 80.058594 293.1875 L 72.347656 287.019531 L 64.625 282.390625 L 61.539062 278.515625 L 63.851562 270.035156 L 63.851562 248.417969 L 57.683594 235.289062 L 50.730469 227.5625 L 42.230469 207.5 L 42.230469 202.085938 C 46.207031 202.597656 49.925781 203.363281 53.8125 203.644531 L 46.101562 195.148438 L 35.292969 187.421875 L 29.109375 180.484375 L 29.109375 173.527344 C 30.433594 170.972656 31.648438 167.589844 32.980469 165.046875 L 38.378906 171.984375 L 42.234375 166.585938 L 48.417969 161.945312 L 48.417969 152.691406 Z M 78.519531 156.554688 L 71.578125 165.035156 L 62.3125 184.34375 L 56.914062 190.511719 L 59.996094 197.464844 L 54.601562 203.632812 C 56.855469 203.78125 59.222656 203.632812 61.539062 203.632812 C 65.75 194.605469 69.144531 185.289062 72.351562 175.84375 L 77.746094 169.675781 L 80.847656 158.097656 Z M 359.863281 186.898438 C 359.554688 187.4375 358.746094 188.984375 358.746094 188.984375 L 345.625 196.710938 L 331.730469 200.5625 L 326.316406 208.289062 L 317.0625 215.230469 L 312.421875 213.6875 L 308.566406 216 L 308.566406 216.773438 L 313.191406 231.4375 L 317.0625 236.851562 L 316.292969 239.933594 L 319.378906 251.515625 L 307.796875 272.363281 L 296.214844 283.160156 L 290.816406 290.113281 L 291.589844 306.320312 L 287.714844 314.816406 L 290.554688 327.285156 C 332.609375 296.8125 359.976562 247.441406 359.976562 191.316406 C 359.976562 189.835938 359.902344 188.371094 359.863281 186.902344 Z M 359.863281 186.898438"/> </g> <mask id="mask2"> <g filter="url(#alpha)"> <rect width="384" height="384" x="0" y="0" style="fill:rgb(0%,0%,0%);fill-opacity:0.2"/> </g> </mask> <clipPath id="clip3"> <rect width="384" height="384" x="0" y="0"/> </clipPath> <g id="surface11" clip-path="url(#clip3)"> <path style="fill:rgb(100.000%,100.000%,100.000%)" d="M 192 24 C 99.214844 24 24 99.277344 24 192.132812 C 24.035156 192.945312 24.078125 193.757812 24.128906 194.570312 C 26.0625 103.15625 100.636719 30.050781 192 30 C 283.757812 30.0625 358.492188 103.785156 359.871094 195.601562 C 359.925781 194.445312 359.96875 193.289062 360 192.132812 C 360 99.277344 284.785156 24 192 24 Z M 192 24"/> </g> <mask id="mask3"> <g filter="url(#alpha)"> <rect width="384" height="384" x="0" y="0" style="fill:rgb(0%,0%,0%);fill-opacity:0.301961"/> </g> </mask> <clipPath id="clip4"> <rect width="384" height="384" x="0" y="0"/> </clipPath> <g id="surface14" clip-path="url(#clip4)"> <path style="fill:rgb(0%,0%,0%)" d="M 126 194.472656 L 111.167969 164.417969 L 78 159.597656 L 102 136.203125 L 96.335938 103.171875 L 126 118.765625 L 155.664062 103.171875 L 150 136.203125 L 174 159.597656 L 140.832031 164.417969 Z M 126 194.472656"/> <path style="fill:rgb(0%,0%,0%)" d="M 240 165.652344 L 225.167969 135.597656 L 192 130.777344 L 216 107.382812 L 210.335938 74.351562 L 240 89.945312 L 269.664062 74.351562 L 264 107.382812 L 288 130.777344 L 254.832031 135.597656 Z M 240 165.652344"/> <path style="fill:rgb(0%,0%,0%)" d="M 138 314.472656 L 123.167969 284.417969 L 90 279.597656 L 114 256.203125 L 108.335938 223.171875 L 138 238.765625 L 167.664062 223.171875 L 162 256.203125 L 186 279.597656 L 152.832031 284.417969 Z M 138 314.472656"/> <path style="fill:rgb(0%,0%,0%)" d="M 270 278.472656 L 255.167969 248.417969 L 222 243.597656 L 246 220.203125 L 240.335938 187.171875 L 270 202.765625 L 299.664062 187.171875 L 294 220.203125 L 318 243.597656 L 284.832031 248.417969 Z M 270 278.472656"/> </g> </defs> <g> <use mask="url(#mask0)" xlink:href="#surface5"/> <path style="fill:rgb(100.000%,78.039%,18.823%)" d="M 192 24 C 99.214844 24 24 99.214844 24 192 C 24 284.785156 99.214844 360 192 360 C 284.785156 360 360 284.785156 360 192 C 360 99.214844 284.785156 24 192 24 Z M 192 24"/> <use mask="url(#mask1)" xlink:href="#surface8"/> <use mask="url(#mask2)" xlink:href="#surface11"/> <use mask="url(#mask3)" xlink:href="#surface14"/> <path style="fill:rgb(100.000%,100.000%,100.000%)" d="M 126 188.46875 L 111.167969 158.414062 L 78 153.597656 L 102 130.203125 L 96.335938 97.167969 L 126 112.765625 L 155.664062 97.167969 L 150 130.203125 L 174 153.597656 L 140.832031 158.414062 Z M 126 188.46875"/> <path style="fill:rgb(100.000%,100.000%,100.000%)" d="M 240 159.652344 L 225.167969 129.597656 L 192 124.777344 L 216 101.382812 L 210.335938 68.347656 L 240 83.945312 L 269.664062 68.347656 L 264 101.382812 L 288 124.777344 L 254.832031 129.597656 Z M 240 159.652344"/> <path style="fill:rgb(100.000%,100.000%,100.000%)" d="M 138 308.46875 L 123.167969 278.414062 L 90 273.597656 L 114 250.203125 L 108.335938 217.167969 L 138 232.765625 L 167.664062 217.167969 L 162 250.203125 L 186 273.597656 L 152.832031 278.414062 Z M 138 308.46875"/> <path style="fill:rgb(100.000%,100.000%,100.000%)" d="M 270 272.46875 L 255.167969 242.414062 L 222 237.597656 L 246 214.203125 L 240.335938 181.167969 L 270 196.765625 L 299.664062 181.167969 L 294 214.203125 L 318 237.597656 L 284.832031 242.414062 Z M 270 272.46875"/> </g> </svg>

<svg width="512" height="512" version="1.1" viewBox="0 0 384 384" xmlns="http://www.w3.org/2000/svg" xmlns:xlink="http://www.w3.org/1999/xlink"><defs><filter id="alpha" x="0%" y="0%" width="100%" height="100%"><feColorMatrix in="SourceGraphic" values="0 0 0 0 1 0 0 0 0 1 0 0 0 0 1 0 0 0 1 0"/></filter><mask id="b"><g filter="url(#alpha)"><rect width="384" height="384" fill-opacity=".2"/></g></mask><clipPath id="c"><rect width="384" height="384"/></clipPath></defs><path d="m192 24c-92.785 0-168 75.215-168 168s75.215 168 168 168 168-75.215 168-168-75.215-168-168-168z" fill="#ffc72e"/><path d="m170.51 24.718c-21.848 2.7695-42.316 9.7344-60.68 20.016l11.926 2.9844 7.7109 5.3984v4.625l13.121 8.4961-3.082 12.355-6.9375-5.3984-4.6406 5.3945-5.4023 3.0859-3.082-9.2695 1.5352-5.3945-1.5352-3.8555-7.7266-6.957h-3.0859l3.0859 7.7266v6.9375c-3.0391-0.84375-6.1602-1.1445-9.2695-1.5391l8.4961 6.1836 0.77344 3.8555 10.039 8.4961 10.023-2.3125v-6.1836l4.6406 3.082-2.3125 5.4141h7.7109l3.8711 6.9375 4.625 5.4141 9.2695 1.543-5.4141 5.3945-1.543 5.4141h6.957l8.4805 4.6289v13.895h-3.8555l-3.8555 3.8516-8.4961-3.8516-3.0859-8.5-6.1836-3.8555-0.76953-3.082-10.023-2.3125-5.4141 6.168-6.168 3.082 3.8555 6.957-5.3984-1.543-3.0977-6.957 6.9531-7.707h-3.082l-6.1875 5.3945-1.543 7.7305-5.3945 6.9336-1.543-10.02-3.1016-1.5586c-3.2695 3.4609-5.7266 7.6836-8.4805 11.582l-10.809 0.76953-5.4141 3.8711 2.3281 3.8555 6.168 5.3945h8.4961l11.582-3.8516 5.3984 0.76953 4.625 4.625 12.352-12.352 8.5-2.3125 12.352 1.543 11.582 3.0977c6.3047 7.2969 12.551 14.801 18.52 22.375l6.957 17.766-3.1016 3.0859 6.1836 9.2656-6.9531 16.207c-5.625 6.4883-11.367 12.797-16.98 19.293l-8.4961-6.9414-3.0859 3.8555-9.2656-5.3945-3.0859 3.082h-8.4805l-5.4141 6.168 3.0859 10.812-6.168 6.9531 0.76953 12.352-5.3984 9.2539 3.8555 7.7266c0.32812 5.6172 0.77344 11.359 0.77344 16.977-2.7109 7.6133-5.9414 14.723-8.5 22.395l-1.5391 12.352v6.168h-4.6289l-7.7266-4.625h-7.3633c27.508 19.66 61.148 31.348 97.688 31.348 27.438 0 53.223-6.6562 76.051-18.227l0.375-0.76953-5.4141-5.3984-1.5391-5.4141-8.4805-2.3125-6.1875-16.977 1.543-3.8555-3.8555-6.957-10.039-2.3125-4.625-11.582 0.76953-15.434-7.7266-10.812-0.76953-10.809c10.535-5.332 20.434-10.719 30.891-16.207l5.3945-10.812 9.2695-2.3125 5.3984-13.895 12.352 1.543 11.582-8.4805 11.578 10.793v1.543c3.4961-1.0312 7.6992-1.1328 10.812-3.082l2.3125-7.7109v-7.7266l7.7109 0.76952c-0.64453-5.1875-1.668-11.016-2.3125-16.207h4.6406l4.625 6.168 4.6289 2.3125 6.1836-3.8516 0.76953-7.7109-0.76953-9.2695-10.039-6.9531h-7.7109l-1.5586-4.6289-9.25 2.3164-6.957 8.4961-1.543-14.664-12.352-10.039-3.8555-11.582-9.2695-3.8555-5.3945-6.957-11.582-2.3125-5.4141-9.2656h16.996l-10.812-4.6289h-7.7266l-10.023-3.8516-1.5586 10.02-4.625-6.9375 5.3984-3.8555-1.543-3.8711 3.8711-3.8555 4.625-0.76953-1.5391-4.625 3.8555-6.957 7.7266 3.0859-1.543-6.168 9.25-5.4141 6.957 13.121-0.77344 3.8711 6.9414 3.0859 4.6406 10.039 1.543-9.2695 12.352-4.625 2.3125-6.957-16.207-9.2656-6.9531-6.9414-0.77344-8.4961 0.41016-0.24609c-1.7617-1.1719-3.6602-2.2109-5.4922-3.3281l2.7852 6.6914h-7.7266l-2.3125-6.1836-6.9375 5.3945h-6.1836v-6.168l6.9531-3.0977 6.168 3.8711-0.76953-1.543c-3.0977-2.2422-6.082-4.8008-9.2383-6.957l-7.7266 2.332c-4.8008 3.3242-9.0938 6.6992-13.895 10.023l-7.7266-6.9414 8.4961-3.082 3.0859-7.7266 6.0195-0.67188c-3.25-1.2031-6.4922-2.4258-9.8281-3.4297l-15.484 11.059v6.9375l6.168 6.957-8.4805 16.977-6.1836-3.082-6.9414-11.582c-10.367-3.2695-20.336-7.0625-30.129-11.582l0.77345 4.625-4.6289 3.1016-8.4961-6.1875 3.8711-4.625 6.168 3.0859 0.77345-0.77344-7.5859-20.684zm-77.23 30.711c-2.625 1.9062-5.2891 3.7539-7.793 5.8047l3.0664 3.4609 8.5-9.2656zm63.977 8.4961h4.6406v4.6289l-3.082 3.8516v6.957l1.5391 10.039-7.7227-1.543-6.168-5.4102 5.3945-5.3984c1.6914-4.6016 3.2773-8.7109 5.3984-13.125zm11.582 10.039 4.6406 1.543-0.76953 9.2539-6.957-3.8555zm-120.42 78.734-6.957 7.7148-7.7109-0.76563c-2.7148 2.5117-5.4102 4.6719-7.9414 7.1836-1.1562 7.9883-1.7852 16.156-1.7852 24.477 0 55.156 26.441 103.77 67.258 134.36l-10.453-12.406 1.5586-5.3984-9.2656-7.7266 6.9375-6.9492-7.7109-6.168-7.7227-4.6289-3.0859-3.875 2.3125-8.4805v-21.617l-6.168-13.129-6.9531-7.7266-8.5-20.062v-5.4141c3.9766 0.51173 7.6953 1.2773 11.582 1.5586l-7.7109-8.4961-10.809-7.7266-6.1836-6.9375v-6.957c1.3242-2.5547 2.5391-5.9375 3.8711-8.4805l5.3984 6.9375 3.8555-5.3984 6.1836-4.6406v-9.2539zm30.102 3.8555-6.9414 8.4805-9.2656 19.309-5.3984 6.168 3.082 6.9531-5.3945 6.168c2.2539 0.14844 4.6211 0 6.9375 0 4.2109-9.0273 7.6055-18.344 10.812-27.789l5.3945-6.168 3.1016-11.578zm281.34 30.344c-0.30858 0.53907-1.1172 2.0859-1.1172 2.0859l-13.121 7.7266-13.895 3.8516-5.4141 7.7266-9.2539 6.9414-4.6406-1.543-3.8555 2.3125v0.77345l4.625 14.664 3.8711 5.4141-0.76953 3.082 3.0859 11.582-11.582 20.848-11.582 10.797-5.3984 6.9531 0.77344 16.207-3.875 8.4961 2.8398 12.469c42.055-30.473 69.422-79.844 69.422-135.97 0-1.4805-0.0742-2.9453-0.11328-4.4141z" fill="#fff" opacity=".3"/><use width="100%" height="100%" mask="url(#b)" xlink:href="#a"/><path d="m210.34 75.847 5.6631 33.035-24 23.395 33.168 4.8208 14.832 30.054 14.833-30.054 33.167-4.8208-24-23.395 5.6646-33.035-29.665 15.598zm-114 28.821 5.6631 33.035-24 23.395 33.168 4.8164 14.832 30.054 14.833-30.054 33.167-4.8164-24-23.395 5.6646-33.035-29.665 15.598zm144 84 5.6631 33.035-24 23.395 33.168 4.8164 14.832 30.054 14.833-30.054 33.167-4.8164-24-23.395 5.6646-33.035-29.665 15.598zm-132 36 5.6631 33.035-24 23.395 33.168 4.8164 14.832 30.054 14.833-30.054 33.167-4.8164-24-23.395 5.6646-33.035-29.665 15.598z" opacity=".3"/><g fill="#fff"><path d="m126 188.47-14.832-30.055-33.168-4.8164 24-23.395-5.6641-33.035 29.664 15.598 29.664-15.598-5.6641 33.035 24 23.395-33.168 4.8164z"/><path d="m240 159.65-14.832-30.055-33.168-4.8203 24-23.395-5.6641-33.035 29.664 15.598 29.664-15.598-5.6641 33.035 24 23.395-33.168 4.8203z"/><path d="m138 308.47-14.832-30.055-33.168-4.8164 24-23.395-5.6641-33.035 29.664 15.598 29.664-15.598-5.6641 33.035 24 23.395-33.168 4.8164z"/><path d="m270 272.47-14.832-30.055-33.168-4.8164 24-23.395-5.6641-33.035 29.664 15.598 29.664-15.598-5.6641 33.035 24 23.395-33.168 4.8164z"/></g><path transform="scale(.75)" d="m32.062 251c-0.036438 1.6631-0.0625 3.3282-0.0625 5 0 123.71 100.29 224 224 224s224-100.29 224-224c0-1.6718-0.02606-3.3369-0.0625-5-2.66 121.4-101.9 219-223.94 219s-221.28-97.597-223.94-219z" opacity=".3" stroke-width="1.3333"/><path transform="scale(.75)" d="m256 32c-123.71 0-224 100.29-224 224 0 1.6718 0.026062 3.3369 0.0625 5 2.66-121.4 101.9-219 223.94-219s221.28 97.597 223.94 219c0.03644-1.6631 0.0625-3.3282 0.0625-5 0-123.71-100.29-224-224-224z" fill="#fff" opacity=".3" stroke-width="1.3333"/></svg>
